X:1
T:Title
%%score 1 2
L:1/8
M:3/4
K:F
V:1 treble nm="Grand Piano, Staff"
V:2 treble nm="Nylon Gtr., Staff-1"
V:1
 A2 A2 G2 | F2 c4 | A2 F2 G2 | A2 F4- | F2 c4- | c2 A4- | A2 c4- | c2 A4- | A2 F2 G2 | A2 c2 B2 | %10
w: By~J.~Dunajevskij * *||||||||||
 A2 F4 | E2 F4 | c2 c4 | B2 A4 | d2 c2 B2 | A2 G4 | c2 G2 A2 | B2 c4 | F2 F4 | E2 F4 | B2 B2 A2 | %21
w: |||||||||||
 G2 A2 B2 | c2 A4 | G2 F4 |] %24
w: |||
V:2
 [A,CF]2 [A,CF]4- | [A,CF]2 [A,CF]4- | [A,CF]2 [_A,B,DF]4- | [A,B,DF]2 [=A,CF]4- | %4
 [A,CF]2 [G,CE]4- | [G,CE]2 [A,CF]4- | [A,CF]2 [A,CE]4- | [A,CE]2 [A,CF]4- | [A,CF]2 [A,CF]4- | %9
 [A,CF]2 [A,CF]4- | [A,CF]2 [G,CF]4 | [G,CE]2 [A,CF]4- | [A,CF]2 [A,CF]4- | [A,CF]2 [A,CF]4- | %14
 [A,CF]2 [A,CF]4- | [A,CF]2 [G,CE]4- | [G,CE]2 [G,CE]4- | [G,CE]2 [A,CF]4- | [A,CF]2 [G,CF]4 | %19
 [G,CE]2 [A,CF]4- | [A,CF]2 [G,B,D]4- | [G,B,D]2 [A,CF]4- | [A,CF]2 [A,CF]4 | [G,B,CE]2 [A,CF]4 |] %24

